X: 3
T: THE BALL
B: "Old English Country Dances", Frank Kidson ed., William Reeves pub., London 1890
Z: 2010-9-26 John Chambers <jc:trillian.mit.edu>
M: 6/8
L: 1/8
K: A
e |\
c2A B2G | AcA E2E | F2F d2B | (A3 G2)e |
c2A B2G | AcA E2E | F2d B2G | A3  A,2 :|
|: c |\
B2E d2B | cec A2c | B2E d2B | (c3 B2)e |
f2d B2g | a2e c2A | F2d B2G | A3 A,2  :|


%%sep 1 1 500

%%sep 1 1 500

